static/icons/optimisation.svg

<svg xmlns="http://www.w3.org/2000/svg" width="49" height="48" fill="none">
  <path stroke="#7EBBE5" stroke-linecap="round" stroke-linejoin="round" stroke-width="2.8125" d="M43.6364 21.2143C42.2844 11.7642 34.1576 4.5 24.3333 4.5 14.509 4.5 6.384 11.7642 5.03107 21.2143m22.08803 22.088c1.5272-.2179 3.0229-.6175 4.4552-1.1905m-10.0267 1.1905c-1.5376-.2192-3.0431-.623-4.484-1.2025m26.5729-15.314c-.2183 1.5269-.6183 3.0223-1.1914 4.4543M5.03113 26.7858c.22193 1.5507.62585 3.0438 1.19043 4.4543m6.04964 8.0823c-1.219-.9609-2.31961-2.0631-3.27879-3.2834m30.68279 0c-.9658 1.2286-2.0749 2.3375-3.3039 3.3029"/>
  <path stroke="#7EBBE5" stroke-linecap="round" stroke-linejoin="round" stroke-width="2.8125" d="M21.3117 26.5944c-2.0709-.2501-4.1327-.5715-6.1815-.9638-1.339-.26-1.845-1.8163-.9332-2.8312 2.3326-2.5973 6.5056-7.0618 11.0222-11.0343 1.1978-1.053 3.0039-.13 2.8934 1.4616-.2321 3.3401-.5042 6.0608-.7568 8.1789 2.5536.312 4.6512.6685 6.1806.9638 1.3399.26 1.8451 1.8163.9341 2.8312-2.3325 2.5963-6.5055 7.0618-11.0221 11.0343-1.1979 1.053-3.0039.13-2.8934-1.4616.2321-3.3401.5032-6.0608.7567-8.1789Z"/>
</svg>

<svg width="49" height="48" viewBox="0 0 49 48" fill="none" xmlns="http://www.w3.org/2000/svg">
<path d="M43.6364 21.2143C42.2844 11.7642 34.1576 4.5 24.3333 4.5C14.509 4.5 6.384 11.7642 5.03107 21.2143" stroke="#7EBBE5" stroke-width="2.8125" stroke-linecap="round" stroke-linejoin="round"/>
<path d="M27.1191 43.3023C28.6463 43.0844 30.142 42.6848 31.5743 42.1118M21.5476 43.3023C20.01 43.0831 18.5045 42.6793 17.0636 42.0998M43.6365 26.7858C43.4182 28.3127 43.0182 29.8081 42.4451 31.2401M5.03113 26.7858C5.25306 28.3365 5.65698 29.8296 6.22156 31.2401M12.2712 39.3224C11.0522 38.3615 9.95159 37.2593 8.99241 36.039M39.6752 36.039C38.7094 37.2676 37.6003 38.3765 36.3713 39.3419" stroke="#7EBBE5" stroke-width="2.8125" stroke-linecap="round" stroke-linejoin="round"/>
<path d="M21.3117 26.5944C19.2408 26.3443 17.179 26.0229 15.1302 25.6306C13.7912 25.3706 13.2852 23.8143 14.197 22.7994C16.5296 20.2021 20.7026 15.7376 25.2192 11.7651C26.417 10.7121 28.2231 11.6351 28.1126 13.2267C27.8805 16.5668 27.6084 19.2875 27.3558 21.4056C29.9094 21.7176 32.007 22.0741 33.5364 22.3694C34.8763 22.6294 35.3815 24.1857 34.4705 25.2006C32.138 27.7969 27.965 32.2624 23.4484 36.2349C22.2505 37.2879 20.4445 36.3649 20.555 34.7733C20.7871 31.4332 21.0582 28.7125 21.3117 26.5944Z" stroke="#7EBBE5" stroke-width="2.8125" stroke-linecap="round" stroke-linejoin="round"/>
</svg>
